X: 39
M:6/8
L:1/8
K:G
d |: B2G GBG | d2 G GBG | B2G GBG |
d3 edc | B2G GBG | d2c BAG |
d2g B2g | B2g gfg | c3 edc |


